packages/kaspersky-hexa-ui-icons/src/iconsSVGs/16/CustomSettings.svg

<svg width="16" height="16" viewBox="0 0 16 16" fill="none" xmlns="http://www.w3.org/2000/svg">
<path fill-rule="evenodd" clip-rule="evenodd" d="M3.11277 1.86621C3.47175 1.86621 3.76277 2.15723 3.76277 2.51621L3.76277 4.77105C4.60931 5.04509 5.22149 5.83992 5.22149 6.77774C5.22149 7.71555 4.60931 8.51038 3.76277 8.78442V13.484C3.76277 13.8429 3.47175 14.134 3.11277 14.134C2.75378 14.134 2.46277 13.8429 2.46277 13.484V8.78447C1.61615 8.51047 1.00391 7.7156 1.00391 6.77774C1.00391 5.83987 1.61615 5.045 2.46277 4.771V2.51621C2.46277 2.15723 2.75378 1.86621 3.11277 1.86621ZM2.30391 6.77774C2.30391 6.33105 2.66601 5.96895 3.1127 5.96895C3.55938 5.96895 3.92149 6.33105 3.92149 6.77774C3.92149 7.22442 3.55938 7.58653 3.1127 7.58653C2.66601 7.58653 2.30391 7.22442 2.30391 6.77774Z" fill="black"/>
<path fill-rule="evenodd" clip-rule="evenodd" d="M7.99961 1.86621C8.35859 1.86621 8.64961 2.15723 8.64961 2.51621V7.68613C9.49618 7.96015 10.1084 8.755 10.1084 9.69284C10.1084 10.6307 9.49618 11.4255 8.64961 11.6995V13.484C8.64961 13.8429 8.35859 14.134 7.99961 14.134C7.64062 14.134 7.34961 13.8429 7.34961 13.484V11.6996C6.50302 11.4255 5.89081 10.6307 5.89081 9.69284C5.89081 8.75499 6.50302 7.96014 7.34961 7.68612V2.51621C7.34961 2.15723 7.64062 1.86621 7.99961 1.86621ZM7.19081 9.69284C7.19081 9.24615 7.55292 8.88405 7.9996 8.88405C8.44628 8.88405 8.80839 9.24615 8.80839 9.69284C8.80839 10.1395 8.44628 10.5016 7.9996 10.5016C7.55292 10.5016 7.19081 10.1395 7.19081 9.69284Z" fill="black"/>
<path fill-rule="evenodd" clip-rule="evenodd" d="M13.5365 2.51621C13.5365 2.15723 13.2455 1.86621 12.8865 1.86621C12.5275 1.86621 12.2365 2.15723 12.2365 2.51621V3.30984C11.3899 3.58385 10.7777 4.37871 10.7777 5.31655C10.7777 6.2544 11.3899 7.04925 12.2365 7.32327V13.484C12.2365 13.8429 12.5275 14.134 12.8865 14.134C13.2455 14.134 13.5365 13.8429 13.5365 13.484V7.32326C14.3831 7.04924 14.9953 6.25439 14.9953 5.31655C14.9953 4.37872 14.3831 3.58387 13.5365 3.30984V2.51621ZM12.8865 4.50776C12.4398 4.50776 12.0777 4.86987 12.0777 5.31655C12.0777 5.76324 12.4398 6.12534 12.8865 6.12534C13.3332 6.12534 13.6953 5.76324 13.6953 5.31655C13.6953 4.86987 13.3332 4.50776 12.8865 4.50776Z" fill="black"/>
</svg>

<svg xmlns="http://www.w3.org/2000/svg" width="16" height="16" fill="none" viewBox="0 0 16 16"><path fill="#000" fill-rule="evenodd" d="M12.8865 1.8662a.65.65 0 0 1 .65.65V3.31c.8466.274 1.4588 1.0688 1.4588 2.0067s-.6122 1.7326-1.4588 2.0067v6.1607a.65.65 0 1 1-1.3 0V7.3233c-.8466-.274-1.4588-1.069-1.4588-2.0067 0-.9379.6122-1.7328 1.4588-2.0068v-.7936a.65.65 0 0 1 .65-.65m-9.7737 0a.65.65 0 0 1 .65.65V4.771c.8465.274 1.4587 1.069 1.4587 2.0067 0 .9379-.6122 1.7327-1.4587 2.0067v4.6996a.65.65 0 1 1-1.3 0V8.7845c-.8467-.274-1.4589-1.0689-1.4589-2.0068 0-.9378.6123-1.7327 1.4589-2.0067V2.5162a.65.65 0 0 1 .65-.65m4.8868 0a.65.65 0 0 1 .65.65v5.17c.8466.274 1.4588 1.0688 1.4588 2.0066s-.6122 1.7327-1.4588 2.0068v1.7844a.65.65 0 1 1-1.3 0v-1.7844c-.8466-.2741-1.4588-1.0689-1.4588-2.0068 0-.9378.6122-1.7327 1.4588-2.0067V2.5162a.65.65 0 0 1 .65-.65m4.0781 3.4504a.8088.8088 0 1 1 1.6176 0 .8088.8088 0 0 1-1.6176 0M2.3039 6.7777a.8088.8088 0 1 1 1.6176 0 .8088.8088 0 0 1-1.6176 0m4.887 2.9151a.8088.8088 0 1 1 1.6175 0 .8088.8088 0 0 1-1.6176 0"/></svg>
